X:1
T:Ave Regina Coelorum
T:Ave Regina Coelorum
T:Giovanni Rovetta
C:Giovanni Rovetta
%%score [ 1 2 ] { ( 3 5 ) | 4 }
L:1/8
Q:1/4=120
M:2/2
K:C
V:1 treble nm="Soprano" snm="S"
V:2 bass nm="Bass" snm="B"
V:3 treble nm="MusicXML Part"
V:5 treble 
V:4 bass 
V:1
 z4 G4- | GFGD E4- | EFGA Bcd/c/c/B/ | c4- cBcG | A6 G2 | G8 | z8 | z8 | z8 | z8 | z8 :: %11
w: A-|||||ve.||||||
w: |||||||||||
[M:12/8] z6 z GE FDF | EFE D3 C3 z3 |[M:4/4] (3z cA (3_BGB (3ABA G2 | F2 c>c d>d A2 | %15
w: A- ve, a- ve Re-|gi- na Coe- lo- rum,|a- ve, a- ve Re- gi- na Coe- lo-|rum, a- ve Do- mi- na|
w: ||||
 (3_BAB (3:2:2c2 B A2 G2 | z2 B>B c>c G2 |[M:12/8] AGA B2 c c2 B c3 | z6 z cA _BGB | %19
w: Do- mi- na An- ge lo- rum,|a- ve Do- mi- na,|Do- mi- na An- ge- lo- * rum,|a- ve a- ve Re-|
w: ||||
 A_BA G3 F3 z3 | z d_B cAc BcB A3 |[M:4/4] G4 z2 B>B | cc G2 (3AGF E>E | FF c>c d>d A2 | %24
w: gi- na Coe- lo- rum|a- ve, a- ve Re- gi- na Coe- lo-|rum, a- ve|Do- mi- na, Do- mi- na An- ge-|lo- rum, a- ve Do- mi- na,|
w: |||||
[M:12/8]"^-natural" BAB c2 B AAA FEF | G2 G AGA BAB c2 c |[M:4/4] c6 B2 | c8 :| z8 | z2 c3 c ^c>d | %30
w: Do- mi- na An- ge- lo- rum, Re- gi- na Coe-|lo- rum, Do- mi- na, Do- mi- na An- ge-|lo- *|rum.||Sal- ve, sal- ve|
w: ||||||
 d2 d2 z4 | z2 AB cc B>A | e2 e2 z4 | z2 c3 c c>B | d3 c B4 | A2 AB cc B>A | B2 B2 z4 | z2 G3 GGF | %38
w: por- ta,|sal- ve ra- dix, sal- ve|por- ta,|ex qua mun- do|lux est or-|ta, sal- ve ra- dix sal- ve|por- ta,|ex qua mun- do|
w: ||||||||
 E4 z2 E2 | ^F2 G4 F2 |:[M:3/2] G8 d3 c | B4 G4 c3 B | A2 G2 A2 B2 c4 | G8 z4 | z8 c3 B | %45
w: lux est|or- * *|ta. Gau- de,|gau- de,- gau- de|Vir- go glo- ri- o-|sa,|gau- de,|
w: ||sa _ _|_ _ _ _||||
 A4 F4 f3 e | d2 c2 B2 A2 B4 | c8 z4 | z8 d3 c | B4 G4 G3 F | E4 C4 c3 B | A2 G2 A2 F2 G2 G2 | %52
w: gau- de, gau- de|Vir- go glo- ri- o-|sa,|gau- de,|gau- de, gau- de|gau- de, gau- de|Vir- go glo- ri- o- sa,|
w: |||||||
 z8 G3 F | E2 D2 E2 C2 D2 D2 | z8 G3 F | E4 C4 z4 | z8 d3 c | B4 G4 z4 |[M:2/2] z2 c3 _BBA | %59
w: gau- de|Vir- go glo- ri- o- sa,|gau- de,|gau- de,|gau- de,|gau- de|Vir- go glo- ri-|
w: |||||||
 A2 A2 z4 | z2 d3 ccB | B2 B2 z2 AB | c2 d2 ed cB | A8 :| G8 |: z2 G4 G2 | z2 G2 G2 GA | %67
w: o- sa,|Vir- go glo- ri-|o- sa, su- per|o- mnes spe- * ci- *|o-|sa.|Va- le|O val- de de-|
w: ||||||||
 _B2 B2 z2 B2 | A2 AB c2 c2 | z2 _BA GG c2- | c2 _BA G4 | A cde f2 ee/d/ | d2 d2 z4 | ABcd BG z c | %74
w: co- ra, O|val- de de- co- ra|et pro no- bis Chris-|* stum ex- o-|ra, O _ _ _ val- de de-|co- ra|et pro no- bis Chris- tum ex-|
w: |||||||
 A/B/c/d/ B/c/d/e/ c/d/e/f/ d/e/f/g/ | ee z d G/A/B/c/ A/B/c/d/ | B/c/d/e/ c/d/e/f/ dd z2 | %77
w: o- * * * * * * * * * * * * * * *|* ra, ex- o- * * * * * * *|* * * * * * * * * ra,-|
w: |||
 z2 z d G/A/B/c/ A/B/c/d/ | B/c/d/e/ c/d/e/f/ dd z d | B/c/d/e/ c/d/e/f/ d/e/f/g/ e/d/c/d/ | %80
w: ex- o- * * * * * * *|* * * * * * * * * ra, ex-|o- * * * * * * * * * * * * * * *|
w: |||
 B/c/d/B/ c/B/c/B/ A/B/c/A/ B/A/B/A/ | G/A/B/G/ c4 B>A | A2 A>G G4 | F2 f2 f2 e>d | d4 c4 | %85
w: |* * * * * ra, ex-|o- ra pro no-|bis, pro no- bis pro|no- bis|
w: |||||
 z2 d4 G2 | z2 c4 B>A | B2 c4 B2 | c8 |] %89
w: Chri- stum|Chri- stum ex-|o- * *|ra.|
w: ||||
V:2
 z8 | z8 | z8 | z8 | z8 | z4 C4- | CB,CG, A,4- | A,G,A,E, F,G,A,B, | C,D,E,F, G,4- | %9
w: |||||A-||||
w: |||||||||
 G,F,G,B,, C,4 | G,8 ::[M:12/8] z G,E, F,D,F, E,C,E, D,3 | C,3 z6 z3 | %13
w: |ve.|A- ve, a- ve Re- gi- na Coe- lo-|rum,|
w: ||||
[M:4/4] (3A,F,A, G,2 F,2 C>C | D>D A,2 (3_B,A,G, ^F,>F, | G,G, z4 B,>B, | C>C G,2 (3A,G,F, E,>E, | %17
w: a- ve a- ve Re- gi- na|Do- mi- na Do- mi- na An- ge-|lo- rum, a- ve|Do- mi- na, Do- mi- na An- ge-|
w: ||||
[M:12/8] F,3 G,3 z6 | z CA, _B,G,B, A,F,A, G,3 | F,3 z3 z D_B, CA,C | _B,G,B, A,3 G,3 z3 | %21
w: lo- rum,|a- ve, a- ve Re- gi- na Coe- lo-|rum, a- ve, a- ve Re-|gi- na Coe- lo- rum,|
w: ||||
[M:4/4] z2 B,>B, C>C G,2 | (3A,G,F, E,>E, F,F, C>C | D>D A,2 (3_B,A,G, ^F,>F, | %24
w: a- ve Do- mi- na,|Do- mi- na An- ge- lo- rum, a- ve|Do- mi- na, Do- mi- na An- ge-|
w: |||
[M:12/8] G,G,G, E,D,E, F,F,F, D,C,D, | E,2 E, F,E,F, G,F,G, A,2 F, |[M:4/4] G,8 | C,8 :| %28
w: lo- rum, Re- gi- na Coe- lo- rum, Re- gi- na Coe-|lo- rum, Do- mi- na, Do- mi- na An- ge-|lo-|rum.|
w: ||||
 z2 G,3 G, ^G,>A, | A,2 A,2 z4 | z2 D,E, F,F, E,>D, | A,2 A,2 z4 | z2 ^G,3 G, G,>A, | A,8 | %34
w: Sal- ve, sal- ve|ra- dix,|sal- ve ra- dix, sal- ve|por- ta,|ex qua mun- do|lux|
w: ||||||
 z2 A,2 A,3 ^G, | A,4 z4 | z2 E,^F, G,G, F,>E, | B,2 B,2 z4 | z2 C3 CCB, | A,3 A, A,4 |: %40
w: est or- *|ta,|sal- ve ra- dix sal- ve|por- ta,|ex qua mun- do|lux est or-|
w: ||||||
[M:3/2] G,8 z4 | z12 | z8 G,3 F, | E,4 C,4 C3 B, | A,2 G,2 F,2 E,2 F,4 | F,,8 z4 | z8 G,3 F, | %47
w: ta.||Gau- de,|gau- de, gau- de|Vir- go glo- ri- o-|sa|gau- de,|
w: sa|||||||
 E,4 C,4 C3 B, | A,2 G,2 ^F,2 E,2 F,4 | G,4 G,3 F, E,4 | C,4 C3 B, A,4 | F,4 z4 C3 B, | %52
w: gau- de gau- de|Vir- go glo- ri- o-|sa, gau- de, gau-|de, gau- de,- gau-|de, gau- de|
w: |||||
 A,2 G,2 A,2 F,2 G,2 G,2 | z8 G,3 F, | E,2 D,2 E,2 C,2 G,2 G,2 | z8 C3 B, | A,4 F,4 z4 | %57
w: Vir- go glo- ri- o- sa,|gau- de|Vir- go glo- ri- o- sa,|gau- de,|gau- de,|
w: |||||
 z8 G,3 F, |[M:2/2] E,2 C,2 z4 | z2 F,3 E,E,>D, | D,2 D,2 z4 | z2 G,3 F,F,>E, | %62
w: gau- de,|gau- de,|vir- go glo- ri-|o- sa,|Vir- go glo- ri-|
w: |||||
 E,D,D,C, C,B,,B,,C, | D,8 :| G,,8 |: z2 E,4 E,2 | z2 E,2 E,2 E,F, | G,G, z G, D,2 D,E, | %68
w: o- sa, su- per o- mnes spe- ci-|o-|sa.|Va- le|O val- de de-|co- ra, O val- de de-|
w: ||||||
 F,2 F,2 z2 F,E, | D,D, G,2 E,2 F,2 | F,6 E,2 | F,4 z4 | z G,A,B, C2 _B,B,/A,/ | A,2 A,2 z4 | %74
w: co- ra, et pro|no- bis Chris- tum ex-|o- *|ra,|O _ _ _ val de- de-|co- ra,|
w: ||||||
 z4 z2 z G, | C,/D,/E,/F,/ D,/E,/F,/G,/ E,/F,/G,/A,/ F,/G,/A,/B,/ | G,G, z2 D,E,F,G, | %77
w: ex-|o- * * * * * * * * * * * * * * *|* ra, et pro no- bis|
w: |||
 E,C, z G, E,/F,/G,/A,/ F,/G,/A,/B,/ | G,/A,/B,/C/ A,/B,/C/D/ B,G, z D, | %79
w: Chri- stum, ex- o- * * * * * * *|* * * * * * * * * re, ex-|
w: ||
 G,,/A,,/B,,/C,/ A,,/B,,/C,/D,/ B,,/C,/D,/E,/ C,/D,/E,/F,/ | %80
w: o- * * * * * * * * * * * * * * *|
w: |
 G,/F,/G,/F,/ E,/F,/G,/E,/ F,/E,/F,/E,/ D,/E,/F,/D,/ | E,/D,/C,/D,/ E,/D,/E,/C,/ G,4- | %82
w: ||
w: ||
 G,2 F,F, F,2 E,>D, | D,4 C,2 C2 | C2 B,>A, A,4 | G,4 z2 G,2- | G,2 C,2 z2 F,2 | G,8 | C,8 |] %89
w: * ra, ex- o- ra pro|no- bis, pro|no- bis, pro no-|bis Chri-|* stum ex-|o-|ra.|
w: |||||||
V:3
 [EG]8 | [DG]4 [CG]4 | [EG]4 [DG]4 | [CE]4 [CG]4 | [CF]8 | [EG]8 | [CG]4 [CF]4 | [CG]4 [CA]4 | %8
 [EG]8 | [DG]4 [EG]4 | [DGB]8 ::[M:12/8] [DB]3 [Ac]3 [Gc]3 [DA]3 | [EG]3 [DG]3 [EG]3 [DG]3 | %13
[M:4/4] [EA]2 [D_B]2 [FA]2 [EG]2 | [FA]2 [EA]2 [D_B]2 [DA]2 | [DG]2 [EG]2 [FA]2 [DB]2 | %16
 [EG]2 [DG]2 [CA]2 [B,E]2 |[M:12/8] [DA]3 [DG]3 [DG]3 [EG]3 | [EG]3 [DG]3 [FA]3 [DG]3 | %19
 [CA]3 [Ec]3 [FA]3 [Ec]3 | [DG]3 [CA]3 [DG]3 [^FA]3 |[M:4/4] [DB]2 [DG]2 [EG]2 [Dd]2 | %22
 [EA]2 [Gc]2 [Ac]2 [Gc]2 | [FA]2 [EA]2 [Gd]2 [DA]2 |[M:12/8] [D_B]3 [EG]3 [FA]3 [FA]3 | %25
 [CG]3 [FA]3 [DG]3 [EA]3 |[M:4/4] [DG]8 | [EG]8 :| [EG]4 [DG]2 [D^G]2 | [EA]2 [Ac]2 [FA]2 [^CG]2 | %30
 [FA]8 | [Ec]8 | [EB]8 | [EA]8 | [FA]4 [EB]4 | [Ec]8 | [EB]8 | [DG]8 | [EG]8 | [DA]8 |: %40
[M:3/2] [DG]8 [DA]4 | [DB]8 [Gc]4 | A8 G4 | [EG]8 [EG]4 | A6 G2 [FA]4 | x12 | [DG]8 [DG]4 | %47
 [EG]8 [EA]4 | [^FA]8 [DA]4 | [DG]8 [CG]4 | [EG]8 [EA]4 | [Ac]8 [Gc]4 | [Fc]8 [GB]4 | [Gc]8 [Gd]4 | %54
 [Gc]8 [GB]4 | [Ec]8 [CG]4 | [Fc]8 A4 | [DG]8 [EB]4 |[M:2/2] [EG]4 [EG]4 | [CF]4 [Gc]4 | %60
 [FA]4 [DA]4 | [DG]4 [DA]4 | c2 F2 AG G2 | A3 B c d2 c :| [DGB]8 |: [EG]8- | [EG]8 | [D_B]8 | %68
 A4 A4 | _B4 [Gc]2 [FA]2 | [Ac]2 [DG]2 [CG]4 | [CA]6 [EG]2 | [DG]4 [CG]4 | [FA]4 [DG]2 [Gc]2 | %74
 [CA]2 [DG]2 [CF]2 [Gd]2 | [Ge]2 [Fd]2 [CG]2 [CA]2 | [DB]2 [CE]2 [DG]4 | [EG]2 [DG]2 [EG]2 [Fd]2 | %78
 [GB]2 [DA]2 [DG]2 [DA]2 | [DG]2 [FA]2 [DG]2 [EG]2 | [DG]2 [EG]2 [CA]2 [FA]2 | G2 G2 c2 BA | %82
 de f2 c4 | [Fc]2 [FB]2 [Fc]2 [EG]2 | d4 c4 | [DGB]8 | [Ec]4 [Fc]2 [FA]2 | [Gd]8 | [Gce]8 |] %89
V:4
 C,8 | B,,4 C,4- | C,2 B,,A,, G,,4 | A,,4 E,,4 | F,,8 | C,8 | E,4 F,4 | E,4 F,4 | C,8 | B,,4 C,4 | %10
 G,,8 ::[M:12/8] G,3 F,3 E,3 D,3 | C,3 G,3 C3 _B,3 |[M:4/4] A,2 G,2 F,2 C2 | D2 A,2 _B,2 ^F,2 | %15
"^-natural" _B,2 C,2 D,2 G,2 | C2 G,2 A,2 E,2 |[M:12/8] F,3 G,3 G,,3 C,3 | C3 _B,3 A,3 G,3 | %19
 F,3 C3 D3 A,3 | _B,3 A,3 G,3 D3 |[M:4/4]"^-natural" G,2 B,2 C2 G,2 | A,2 E,2 F,2 C2 | %23
 D2 A,2 _B,2 ^F,2 |[M:12/8] G,3 E,3 F,3 D,3 | E,3 F,3 G,3 A,3 |[M:4/4] G,8 | C,8 :| C,4 B,,4 | %29
 A,,3 G, F,2 E,2 | D,8 | A,8 | ^G,8 | A,8 | D,4 E,4 | A,,8 | E,8 |"^6" B,,8 | C,8 | D,8 |: %40
[M:3/2] G,,4 G,4 F,4 | G,8 E,4 | F,4 D,4 C,4 | C8 C,4 | F,6 E,2 F,4 | F,,4 F,4 D,4 | G,8 G,,4 | %47
"^-natural" C,8 A,,4 |"^#" D,6 C,2 D,4 | G,8 E,4 | C,4 C4 A,4 | F,8 E,4 | F,8 G,4 | C,8 B,,4 | %54
 C,8 G,4 | A,8 E,4 | F,8 ^F,4 | G,8 G,,4 |[M:2/2] C,4 E,4 | F,4 E,4 | D,4 ^F,4 | G,4 F,4 | %62
 E,2 D,2 C,2 B,,2 | D,8 :| G,,8 |: C,8- | C,8 |"^b" G,,8 | D,4 A,,4 | %69
"^5       6                     6" _B,,4 C,2 A,,2- | A,,2 _B,,2 C,4 | F,,6 C,2 | G,4 E,4 | %73
 F,2 A,2 G,2 E,2 | F,2 G,2 A,2 B,2 | C,2 D,2 E,2 F,2 | G,,2 A,,2 B,,4 | C,2 B,,2 C,2 D,2 | %78
 E,2 F,2 G,2 ^F,2 | G,,2 A,,2 B,,2 C,2 | G,2 E,2 F,2 D,2 | E,2 C,2 G,4- | %82
"^4   3              2                              6           7      6          4       3" G,2 F,2 F,2 E,2 | %83
 D,4 C,2 C2- | C2 B,2 A,4 | G,8 | C,4 D,4 | G,8 | C,8 |] %89
V:5
 x8 | x8 | x8 | x8 | x8 | x8 | x8 | x8 | x8 | x8 | x8 ::[M:12/8] x12 | x12 |[M:4/4] x8 | x8 | x8 | %16
 x8 |[M:12/8] x12 | x12 | x12 | x12 |[M:4/4] x8 | x8 | x8 |[M:12/8] x12 | x12 |[M:4/4] x8 | x8 :| %28
 x8 | x8 | x8 | x8 | x8 | x8 | x8 | x8 | x8 | x8 | x8 | x8 |:[M:3/2] x12 | x12 | C4 D4 E4 | x12 | %44
 C8 F4 | [Fc]8 [FA]4 | x12 | x12 | x12 | x12 | x12 | x12 | x12 | x12 | x12 | x12 | F8 D2 C2 | x12 | %58
[M:2/2] x8 | x8 | x8 | x8 | G2 D2 E2 D2 | ^F2 G4 F2 :| x8 |: x8 | x8 | x8 | F4 E2 F2 | %69
 F2 G2 G2 F2 | x8 | x8 | x8 | x8 | x8 | x8 | x8 | x8 | x8 | x8 | x8 | C2 E2 D4 | A4 F2 G2 | x8 | %84
 G6 ^F2 | x8 | x8 | x8 | x8 |] %89

